T: Thomond Bridge
M: 4/4
L: 1/8
K: Gmaj
f>dc>A B>Gc>B | A2 F2 F2 f>g | a>gf>e f>ag>f | e2 c2 c2 c>A |B>df>b A>cf>a | G>Bd>g F>Ac>f | e>fg>a b>[gc'] [ed']>[ce'] | [f2f'2] [f2f'2] [f2f2'] :|A>fc>f A>fc>f | a>gf>e d>cB>A | B>gd>g B>gd>g | b>ag>f (3efe (3dcB | A>fc>f A>fc>f | a>gf>e d>cB>A | B>dc>B A>GF>E | G2 F2 F2 :|g>ed>B c>Ad>c | B2 G2 G2 g>a | b>ag>f g>ba>g | f2 d2 d2 d>B |c>eg>c' B>dg>b | A>ce>a G>Bd>g | f>ga>b c'>af>d | g2 g2 g2 :|B>gd>g B>gd>g | b>ag>f e>dc>B | c>ae>a c>ae>a | c'>ba>g (3fgf (3edc |B>gd>g B>gd>g | b>ag>f e>dc>B | c>ed>c B>AG>F | A2 G2 G2 :|
